images/add.svg

<svg width="48" height="48" viewBox="0 0 48 48" fill="none" xmlns="http://www.w3.org/2000/svg">
<path d="M22.65 34H25.65V25.7H34V22.7H25.65V14H22.65V22.7H14V25.7H22.65V34ZM24 44C21.2667 44 18.6833 43.475 16.25 42.425C13.8167 41.375 11.6917 39.9417 9.875 38.125C8.05833 36.3083 6.625 34.1833 5.575 31.75C4.525 29.3167 4 26.7167 4 23.95C4 21.2167 4.525 18.6333 5.575 16.2C6.625 13.7667 8.05833 11.65 9.875 9.85C11.6917 8.05 13.8167 6.625 16.25 5.575C18.6833 4.525 21.2833 4 24.05 4C26.7833 4 29.3667 4.525 31.8 5.575C34.2333 6.625 36.35 8.05 38.15 9.85C39.95 11.65 41.375 13.7667 42.425 16.2C43.475 18.6333 44 21.2333 44 24C44 26.7333 43.475 29.3167 42.425 31.75C41.375 34.1833 39.95 36.3083 38.15 38.125C36.35 39.9417 34.2333 41.375 31.8 42.425C29.3667 43.475 26.7667 44 24 44ZM24.05 41C28.75 41 32.75 39.3417 36.05 36.025C39.35 32.7083 41 28.6833 41 23.95C41 19.25 39.35 15.25 36.05 11.95C32.75 8.65 28.7333 7 24 7C19.3 7 15.2917 8.65 11.975 11.95C8.65833 15.25 7 19.2667 7 24C7 28.7 8.65833 32.7083 11.975 36.025C15.2917 39.3417 19.3167 41 24.05 41Z" fill="white"/>
</svg>

<svg xmlns="http://www.w3.org/2000/svg" height="48" width="48"><path d="M22.65 34h3v-8.3H34v-3h-8.35V14h-3v8.7H14v3h8.65ZM24 44q-4.1 0-7.75-1.575-3.65-1.575-6.375-4.3-2.725-2.725-4.3-6.375Q4 28.1 4 23.95q0-4.1 1.575-7.75 1.575-3.65 4.3-6.35 2.725-2.7 6.375-4.275Q19.9 4 24.05 4q4.1 0 7.75 1.575 3.65 1.575 6.35 4.275 2.7 2.7 4.275 6.35Q44 19.85 44 24q0 4.1-1.575 7.75-1.575 3.65-4.275 6.375t-6.35 4.3Q28.15 44 24 44Zm.05-3q7.05 0 12-4.975T41 23.95q0-7.05-4.95-12T24 7q-7.05 0-12.025 4.95Q7 16.9 7 24q0 7.05 4.975 12.025Q16.95 41 24.05 41ZM24 24Z"/></svg>
